X:1
T:Ned Kelly's
R:polka
M:2/4
L:1/8
K:A
A>F|:EA Ac|Be cB/c/|eA Ac|B/c/B/A/ FE|
|AA/G/ FE|Ac ea|fa/f/ ec|1 BA A>F:|2 BA Ae|]
|:f2 df|ba af|ef/e/ ce|fe c/B/A|
|Bc/B/ AB|ce f/g/a|ec BA/B/|1 cA Ae:|2 cA A>F|]